X:180
T:Le brandy
C:Phillipe Bruneau
Z:robin.beech@mcgill.ca
S:Gaston Nolet - SPTDQ 2012
M:4/4
L:1/8
K:D
dAcA dAFG AAFA | dedc BGEF GABc | dAcA dAFG AAFA |1  dedc BGEF GABc :|2 dedc BGEF GBAF |:
DFFD AFDF GBAF | DFFD CDEF GBAF | DFFD AFDF GBAF |1 DFFD CDEF GBAF :|2 DFFD CDEF GABc |:
d2de dAFA GBAc | dAFA G2EF GAFA | dAFA dAFA GBAc | dAFA eAEF GAFA |
dAFA dAFA GBAc | ddcd BGEF GAFA | dAFA dAFA GBAc | dAFA eBBc dBec |
(3cecAc eABc dBec | (3cecAc BABc dBec |(3cecAc eABc dBec | (3cecAc BcEF GEAF ||
AFDF ADEF GBAF | AFDF EDEF GBAF | AFDF ADEF GBAF | AFDF EDEF GBAF |:
DFFD AFDF GBAF | DFFD CDEF GBAF | DFFD AFDF GBAF |1 DFFD CDEF GBAF :|2 DFFD CDEF GABc |:
